X: 23584
T: Lilac, The
R: reel
M: 4/4
K: Adorian
~e3d c~A3|cd ed c~A3|~e3d c~A3|BA GA Bcdg|
ezed c~A3|cd ed c~A3|~a3g ~e3d|cA GB AzBd:|
ea ag ~e3d|cd ed cA3|~e3d ~c3d|ea ab ag ed|
ea ag ~e3d|cd ed cA3|~e3 d cA~A2|BA GB ~A2 Bd:|

